!!!OTL: Die Rheinbraut Christinchen ging in' Garten,
!!!ARE: Europa, Mitteleuropa, Schweiz, Kanton Bern
!!!YOR: 2, S. 177
!!    1908 gedruckt (o. spaeter) in Bern
!!!SCT: Q0047F
!!!YEM: Copyright 1995, estate of Helmut Schaffrath.
**kern
*ICvox
*Ivox
*M6/8
*k[b-e-]
*B-:
{16dd
16ee-
=1
4ff
8gg
4ee-
8ff
=2
8ee-
8dd
4.r}
{16dd
16ee-
=3
8.ff
16ff
8gg
4ee-
8ff
=4
8ee-
8dd
4.r}
{16dd
16ee-
=5
4ff
8ddd
4ddd
8ccc
=6
8bb-
8bb-
8dd
4ff
8r}
=7
{8bb-
8aa
8bb-
8ccc
4ee-
=8
8gg
8gg
8ff
4dd}
{16dd
16ee-
=9
4ff
8ddd
4ddd
8ccc
=10
8bb-
8bb-
8dd
4ff
8r}
=11
{8bb-
8aa
8bb-
8ccc
4ee-
=12
8gg
8gg
8ff
4dd}
==
!!!AGN: Ballade, Braut - Werbung, Todesahnung, Tod
!! Kleine melodische Variante abgedruckt.
!!!ONB: ESAC (Essen Associative Code) Database: BALLADE
!!!AMT: compound duple
!!!AIN: vox
!!!EED: Helmut Schaffrath
!!!EEV: 1.0
*-
